X:1
T:Sacred Harmony, 77.77
T:Sacred Harmony, 77.77
T:J. Kidd, before 1913
T:Public Domain Courtesy of the Cyber Hymnal™
C:J. Kidd, before 1913
Z:Public Domain
Z:Courtesy of the Cyber Hymnal™
%%score ( 1 2 ) ( 3 4 )
L:1/8
Q:1/4=105
M:4/4
K:G
V:1 treble 
V:2 treble 
V:3 bass 
V:4 bass 
V:1
 [DG]2 [FA]2 (Bd) ([Gd][Ec]) | [DB]2 A2 [B,G]4 | [DA]2 [^CG]2 (FA) ([DB][EG]) | [DF]2 [^CE]2 D4 | %4
 [DG]2 D2 (EF) [DG]2 | [Fc]2 [GB]2 [FA]4 | [Gd]2 [Ge]2 ([Gd][DF]) ([DG][Gc]) | [GB]2 [FA]2 G4 |] %8
V:2
 x4 G2 x2 | x2 (DC) x4 | x4 D2 x2 | x4 D4 | x2 D2 C2 x2 | x8 | x8 | x4 G4 |] %8
V:3
 [G,B,]2 [D,D]2 (DB,) G,2 | [D,G,]2 [D,F,]2 [G,,G,]4 | [D,F,]2 [E,G,]2 [F,A,]2 (G,B,) | %3
 A,2 (A,G,) [D,F,]4 | [B,,G,]2 [G,,B,]2 [C,A,]2 [B,,G,]2 | [A,,A,]2 [G,,D]2 [D,D]4 | %6
 [B,D]2 C2 ([B,D][A,C]) ([G,B,][E,C]) | [D,D]2 (DC) [G,B,]4 |] %8
V:4
 x4 G,2 (B,,C,) | x8 | x6 G,2 | A,2 A,,2 x4 | x8 | x8 | x2 C2 x4 | x2 D,2 x4 |] %8

